TV/Source/Sky Movies Classics.svg

<svg height="6.332613mm" viewBox="0 0 89.520753 22.438391" width="25.264746mm" xmlns="http://www.w3.org/2000/svg" xmlns:xlink="http://www.w3.org/1999/xlink"><clipPath id="a"><path d="m32.314 539.122h82.801v24.803h-82.801z"/></clipPath><g clip-path="url(#a)" fill="#00a7ea" transform="matrix(1.25 0 0 -1.25 -47.38312 700.72439)"><g transform="translate(48.0265 556.5815)"><path d="m0 0-.533.534.86.861.534-.534zm1.928 1.928-.533-.533-.534.533h-1.068l-.86-.86.214.86h-2.659c-.343 0-.648-.274-.648-.618 0-.165.065-.314.168-.426l.513-.506c.034-.036.051-.079.05-.114.001-.085-.049-.149-.182-.149h-1.08l-.163-.649h1.803c.343 0 .65.271.651.616-.001.164-.065.315-.169.425l-.519.515c-.029.029-.045.07-.045.106 0 .085.056.153.158.152h1.099l-.452-1.814h.861l.187.747.747-.747h1.067l2.462 2.462h-1.068zm5.629 1.888v-17.677h-17.677v17.677l8.839-8.838z" fill="#00a7ea"/></g><g transform="translate(61.4768 560.4166)"><path d="m0 0 4.011-4.022 4.011 4.022v-8.135h-1.813v3.943l-2.198-2.198-2.198 2.198v-3.943h-1.813z" fill="#00a7ea"/></g><g transform="translate(76.5901 556.3041)"><path d="m0 0c0 1.291-.986 2.368-2.288 2.368-1.303 0-2.289-1.077-2.289-2.368 0-1.292.986-2.368 2.289-2.368 1.302 0 2.288 1.076 2.288 2.368m-6.401 0c0 2.266 1.847 4.112 4.113 4.112 2.265 0 4.112-1.846 4.112-4.112s-1.847-4.113-4.112-4.113c-2.266 0-4.113 1.847-4.113 4.113" fill="#00a7ea"/></g><g transform="translate(77.7905 560.3261)"><path d="m0 0h2.017l1.779-4.022 1.778 4.022h2.017l-3.795-8.135z" fill="#00a7ea"/></g><path d="m85.8 560.326h1.813v-8.044h-1.813z"/><g transform="translate(88.7346 560.3261)"><path d="m0 0h4.985v-1.79h-3.173v-1.36h2.493v-1.745h-2.493v-1.359h3.173v-1.79h-4.985z" fill="#00a7ea"/></g><g transform="translate(94.1386 553.7662)"><path d="m0 0 1.371 1.121c.351-.555.928-.996 1.484-.996.532 0 .77.203.77.577 0 .363-.26.589-.94.896l-.453.203c-1.212.544-1.881 1.439-1.881 2.527 0 1.405 1.167 2.322 2.447 2.322.896 0 1.575-.215 2.255-1.008l-1.224-1.292c-.407.499-.657.601-1.031.601-.305 0-.623-.193-.623-.555 0-.419.351-.646 1.088-.975l.431-.192c1.11-.499 1.755-1.303 1.755-2.413 0-1.451-1.064-2.391-2.56-2.391-1.292 0-2.334.532-2.889 1.575" fill="#00a7ea"/></g><g transform="translate(61.103 546.7418)"><path d="m0 0c0 2.266 1.847 4.113 4.113 4.113 1.382 0 2.617-.691 3.365-1.745l-1.371-1.122c-.408.657-1.133 1.122-1.994 1.122-1.303 0-2.289-1.076-2.289-2.368s.986-2.368 2.289-2.368c.861 0 1.586.465 1.994 1.122l1.371-1.122c-.748-1.054-1.983-1.745-3.365-1.745-2.266 0-4.113 1.847-4.113 4.113" fill="#00a7ea"/></g><g transform="translate(69.1693 550.7637)"><path d="m0 0h1.813v-6.243h3.127v-1.801h-4.94z" fill="#00a7ea"/></g><g transform="translate(78.8898 545.4387)"><path d="m0 0-.759 1.678-.759-1.678zm-.759 5.416 3.966-8.135h-1.904l-.578 1.247h-2.968l-.578-1.247h-1.903l3.965 8.135z" fill="#00a7ea"/></g><g transform="translate(81.8348 544.2043)"><path d="m0 0 1.371 1.121c.352-.555.929-.997 1.484-.997.533 0 .771.204.771.578 0 .363-.261.589-.941.895l-.453.204c-1.212.544-1.88 1.439-1.88 2.527 0 1.405 1.166 2.322 2.447 2.322.895 0 1.575-.215 2.254-1.008l-1.223-1.291c-.408.498-.658.6-1.031.6-.306 0-.623-.193-.623-.555 0-.42.351-.646 1.087-.975l.431-.192c1.11-.499 1.756-1.303 1.756-2.414 0-1.45-1.065-2.39-2.561-2.39-1.292 0-2.333.532-2.889 1.575" fill="#00a7ea"/></g><g transform="translate(87.6132 544.2043)"><path d="m0 0 1.371 1.121c.35-.555.929-.997 1.484-.997.533 0 .77.204.77.578 0 .363-.26.589-.94.895l-.453.204c-1.213.544-1.881 1.439-1.881 2.527 0 1.405 1.167 2.322 2.447 2.322.895 0 1.574-.215 2.255-1.008l-1.223-1.291c-.409.498-.658.6-1.032.6-.306 0-.622-.193-.622-.555 0-.42.35-.646 1.087-.975l.43-.192c1.111-.499 1.756-1.303 1.756-2.414 0-1.45-1.065-2.39-2.56-2.39-1.292 0-2.335.532-2.889 1.575" fill="#00a7ea"/></g><path d="m93.844 550.764h1.812v-8.044h-1.812z"/><g transform="translate(96.3469 546.7418)"><path d="m0 0c0 2.266 1.847 4.113 4.113 4.113 1.383 0 2.617-.691 3.365-1.745l-1.371-1.122c-.407.657-1.133 1.122-1.994 1.122-1.303 0-2.288-1.076-2.288-2.368s.985-2.368 2.288-2.368c.861 0 1.587.465 1.994 1.122l1.371-1.122c-.748-1.054-1.982-1.745-3.365-1.745-2.266 0-4.113 1.847-4.113 4.113" fill="#00a7ea"/></g><g transform="translate(104.0741 544.2043)"><path d="m0 0 1.371 1.121c.35-.555.929-.997 1.484-.997.533 0 .77.204.77.578 0 .363-.26.589-.94.895l-.453.204c-1.213.544-1.881 1.439-1.881 2.527 0 1.405 1.167 2.322 2.447 2.322.895 0 1.575-.215 2.255-1.008l-1.223-1.291c-.409.498-.658.6-1.032.6-.306 0-.623-.193-.623-.555 0-.42.351-.646 1.088-.975l.43-.192c1.111-.499 1.756-1.303 1.756-2.414 0-1.45-1.065-2.39-2.56-2.39-1.292 0-2.334.532-2.889 1.575" fill="#00a7ea"/></g></g></svg>

<?xml version="1.0" encoding="UTF-8" standalone="no"?>
<!-- Created with Inkscape (http://www.inkscape.org/) -->

<svg
   xmlns:dc="http://purl.org/dc/elements/1.1/"
   xmlns:cc="http://creativecommons.org/ns#"
   xmlns:rdf="http://www.w3.org/1999/02/22-rdf-syntax-ns#"
   xmlns:svg="http://www.w3.org/2000/svg"
   xmlns="http://www.w3.org/2000/svg"
   xmlns:sodipodi="http://sodipodi.sourceforge.net/DTD/sodipodi-0.dtd"
   xmlns:inkscape="http://www.inkscape.org/namespaces/inkscape"
   width="25.264746mm"
   height="6.3326125mm"
   viewBox="0 0 89.520753 22.438391"
   id="svg316268"
   version="1.1"
   inkscape:version="0.92.0 r15299"
   sodipodi:docname="Sky Movies Classics.svg">
  <defs
     id="defs316270">
    <clipPath
       clipPathUnits="userSpaceOnUse"
       id="clipPath72618">
      <path
         d="m 32.314,539.122 82.801,0 0,24.803 -82.801,0 0,-24.803 z"
         id="path72620"
         inkscape:connector-curvature="0" />
    </clipPath>
  </defs>
  <sodipodi:namedview
     id="base"
     pagecolor="#ffffff"
     bordercolor="#666666"
     borderopacity="1.0"
     inkscape:pageopacity="0.0"
     inkscape:pageshadow="2"
     inkscape:zoom="5.6"
     inkscape:cx="47.620795"
     inkscape:cy="8.5355366"
     inkscape:document-units="px"
     inkscape:current-layer="layer1"
     showgrid="false"
     fit-margin-top="0"
     fit-margin-left="0"
     fit-margin-right="0"
     fit-margin-bottom="0"
     inkscape:window-width="1920"
     inkscape:window-height="1017"
     inkscape:window-x="-8"
     inkscape:window-y="-8"
     inkscape:window-maximized="1" />
  <metadata
     id="metadata316273">
    <rdf:RDF>
      <cc:Work
         rdf:about="">
        <dc:format>image/svg+xml</dc:format>
        <dc:type
           rdf:resource="http://purl.org/dc/dcmitype/StillImage" />
        <dc:title />
      </cc:Work>
    </rdf:RDF>
  </metadata>
  <g
     inkscape:label="Layer 1"
     inkscape:groupmode="layer"
     id="layer1"
     transform="translate(-323.81105,-481.14301)">
    <g
       transform="matrix(1.25,0,0,-1.25,276.42793,1181.8674)"
       id="g72614"
       style="fill:#00a7ea;fill-opacity:1">
      <g
         id="g72616"
         clip-path="url(#clipPath72618)"
         style="fill:#00a7ea;fill-opacity:1">
        <g
           id="g72622"
           transform="translate(48.0265,556.5815)"
           style="fill:#00a7ea;fill-opacity:1">
          <path
             d="M 0,0 -0.533,0.534 0.327,1.395 0.861,0.861 0,0 Z M 1.928,1.928 1.395,1.395 0.861,1.928 l -1.068,0 -0.86,-0.86 0.214,0.86 -2.659,0 c -0.343,0 -0.648,-0.274 -0.648,-0.618 0,-0.165 0.065,-0.314 0.168,-0.426 L -3.479,0.378 C -3.445,0.342 -3.428,0.299 -3.429,0.264 -3.428,0.179 -3.478,0.115 -3.611,0.115 l -1.08,0 -0.163,-0.649 1.803,0 c 0.343,0 0.65,0.271 0.651,0.616 -10e-4,0.164 -0.065,0.315 -0.169,0.425 l -0.519,0.515 c -0.029,0.029 -0.045,0.07 -0.045,0.106 0,0.085 0.056,0.153 0.158,0.152 l 1.099,0 -0.452,-1.814 0.861,0 0.187,0.747 0.747,-0.747 1.067,0 2.462,2.462 -1.068,0 z m 5.629,1.888 0,-17.677 -17.677,0 0,17.677 8.839,-8.838 8.838,8.838 z"
             style="fill:#00a7ea;fill-opacity:1;fill-rule:nonzero;stroke:none"
             id="path72624"
             inkscape:connector-curvature="0" />
        </g>
        <g
           id="g72626"
           transform="translate(61.4768,560.4166)"
           style="fill:#00a7ea;fill-opacity:1">
          <path
             d="M 0,0 4.011,-4.022 8.022,0 l 0,-8.135 -1.813,0 0,3.943 -2.198,-2.198 -2.198,2.198 0,-3.943 L 0,-8.135 0,0 Z"
             style="fill:#00a7ea;fill-opacity:1;fill-rule:nonzero;stroke:none"
             id="path72628"
             inkscape:connector-curvature="0" />
        </g>
        <g
           id="g72630"
           transform="translate(76.5901,556.3041)"
           style="fill:#00a7ea;fill-opacity:1">
          <path
             d="m 0,0 c 0,1.291 -0.986,2.368 -2.288,2.368 -1.303,0 -2.289,-1.077 -2.289,-2.368 0,-1.292 0.986,-2.368 2.289,-2.368 C -0.986,-2.368 0,-1.292 0,0 m -6.401,0 c 0,2.266 1.847,4.112 4.113,4.112 2.265,0 4.112,-1.846 4.112,-4.112 0,-2.266 -1.847,-4.113 -4.112,-4.113 -2.266,0 -4.113,1.847 -4.113,4.113"
             style="fill:#00a7ea;fill-opacity:1;fill-rule:nonzero;stroke:none"
             id="path72632"
             inkscape:connector-curvature="0" />
        </g>
        <g
           id="g72634"
           transform="translate(77.7905,560.3261)"
           style="fill:#00a7ea;fill-opacity:1">
          <path
             d="M 0,0 2.017,0 3.796,-4.022 5.574,0 7.591,0 3.796,-8.135 0,0 Z"
             style="fill:#00a7ea;fill-opacity:1;fill-rule:nonzero;stroke:none"
             id="path72636"
             inkscape:connector-curvature="0" />
        </g>
        <path
           d="m 85.8,560.326 1.813,0 0,-8.044 -1.813,0 0,8.044 z"
           style="fill:#00a7ea;fill-opacity:1;fill-rule:nonzero;stroke:none"
           id="path72638"
           inkscape:connector-curvature="0" />
        <g
           id="g72640"
           transform="translate(88.7346,560.3261)"
           style="fill:#00a7ea;fill-opacity:1">
          <path
             d="m 0,0 4.985,0 0,-1.79 -3.173,0 0,-1.36 2.493,0 0,-1.745 -2.493,0 0,-1.359 3.173,0 0,-1.79 L 0,-8.044 0,0 Z"
             style="fill:#00a7ea;fill-opacity:1;fill-rule:nonzero;stroke:none"
             id="path72642"
             inkscape:connector-curvature="0" />
        </g>
        <g
           id="g72644"
           transform="translate(94.1386,553.7662)"
           style="fill:#00a7ea;fill-opacity:1">
          <path
             d="M 0,0 1.371,1.121 C 1.722,0.566 2.299,0.125 2.855,0.125 c 0.532,0 0.77,0.203 0.77,0.577 0,0.363 -0.26,0.589 -0.94,0.896 L 2.232,1.801 C 1.02,2.345 0.351,3.24 0.351,4.328 c 0,1.405 1.167,2.322 2.447,2.322 0.896,0 1.575,-0.215 2.255,-1.008 L 3.829,4.35 C 3.422,4.849 3.172,4.951 2.798,4.951 2.493,4.951 2.175,4.758 2.175,4.396 2.175,3.977 2.526,3.75 3.263,3.421 L 3.694,3.229 C 4.804,2.73 5.449,1.926 5.449,0.816 5.449,-0.635 4.385,-1.575 2.889,-1.575 1.597,-1.575 0.555,-1.043 0,0"
             style="fill:#00a7ea;fill-opacity:1;fill-rule:nonzero;stroke:none"
             id="path72646"
             inkscape:connector-curvature="0" />
        </g>
        <g
           id="g72648"
           transform="translate(61.103,546.7418)"
           style="fill:#00a7ea;fill-opacity:1">
          <path
             d="m 0,0 c 0,2.266 1.847,4.113 4.113,4.113 1.382,0 2.617,-0.691 3.365,-1.745 L 6.107,1.246 C 5.699,1.903 4.974,2.368 4.113,2.368 2.81,2.368 1.824,1.292 1.824,0 c 0,-1.292 0.986,-2.368 2.289,-2.368 0.861,0 1.586,0.465 1.994,1.122 L 7.478,-2.368 C 6.73,-3.422 5.495,-4.113 4.113,-4.113 1.847,-4.113 0,-2.266 0,0"
             style="fill:#00a7ea;fill-opacity:1;fill-rule:nonzero;stroke:none"
             id="path72650"
             inkscape:connector-curvature="0" />
        </g>
        <g
           id="g72652"
           transform="translate(69.1693,550.7637)"
           style="fill:#00a7ea;fill-opacity:1">
          <path
             d="m 0,0 1.813,0 0,-6.243 3.127,0 0,-1.801 -4.94,0 L 0,0 Z"
             style="fill:#00a7ea;fill-opacity:1;fill-rule:nonzero;stroke:none"
             id="path72654"
             inkscape:connector-curvature="0" />
        </g>
        <g
           id="g72656"
           transform="translate(78.8898,545.4387)"
           style="fill:#00a7ea;fill-opacity:1">
          <path
             d="M 0,0 -0.759,1.678 -1.518,0 0,0 Z m -0.759,5.416 3.966,-8.135 -1.904,0 -0.578,1.247 -2.968,0 -0.578,-1.247 -1.903,0 3.965,8.135 z"
             style="fill:#00a7ea;fill-opacity:1;fill-rule:nonzero;stroke:none"
             id="path72658"
             inkscape:connector-curvature="0" />
        </g>
        <g
           id="g72660"
           transform="translate(81.8348,544.2043)"
           style="fill:#00a7ea;fill-opacity:1">
          <path
             d="M 0,0 1.371,1.121 C 1.723,0.566 2.3,0.124 2.855,0.124 c 0.533,0 0.771,0.204 0.771,0.578 0,0.363 -0.261,0.589 -0.941,0.895 L 2.232,1.801 C 1.02,2.345 0.352,3.24 0.352,4.328 c 0,1.405 1.166,2.322 2.447,2.322 0.895,0 1.575,-0.215 2.254,-1.008 L 3.83,4.351 c -0.408,0.498 -0.658,0.6 -1.031,0.6 -0.306,0 -0.623,-0.193 -0.623,-0.555 0,-0.42 0.351,-0.646 1.087,-0.975 L 3.694,3.229 C 4.804,2.73 5.45,1.926 5.45,0.815 5.45,-0.635 4.385,-1.575 2.889,-1.575 1.597,-1.575 0.556,-1.043 0,0"
             style="fill:#00a7ea;fill-opacity:1;fill-rule:nonzero;stroke:none"
             id="path72662"
             inkscape:connector-curvature="0" />
        </g>
        <g
           id="g72664"
           transform="translate(87.6132,544.2043)"
           style="fill:#00a7ea;fill-opacity:1">
          <path
             d="M 0,0 1.371,1.121 C 1.721,0.566 2.3,0.124 2.855,0.124 c 0.533,0 0.77,0.204 0.77,0.578 0,0.363 -0.26,0.589 -0.94,0.895 L 2.232,1.801 C 1.019,2.345 0.351,3.24 0.351,4.328 c 0,1.405 1.167,2.322 2.447,2.322 0.895,0 1.574,-0.215 2.255,-1.008 L 3.83,4.351 c -0.409,0.498 -0.658,0.6 -1.032,0.6 -0.306,0 -0.622,-0.193 -0.622,-0.555 0,-0.42 0.35,-0.646 1.087,-0.975 L 3.693,3.229 C 4.804,2.73 5.449,1.926 5.449,0.815 c 0,-1.45 -1.065,-2.39 -2.56,-2.39 C 1.597,-1.575 0.554,-1.043 0,0"
             style="fill:#00a7ea;fill-opacity:1;fill-rule:nonzero;stroke:none"
             id="path72666"
             inkscape:connector-curvature="0" />
        </g>
        <path
           d="m 93.844,550.764 1.812,0 0,-8.044 -1.812,0 0,8.044 z"
           style="fill:#00a7ea;fill-opacity:1;fill-rule:nonzero;stroke:none"
           id="path72668"
           inkscape:connector-curvature="0" />
        <g
           id="g72670"
           transform="translate(96.3469,546.7418)"
           style="fill:#00a7ea;fill-opacity:1">
          <path
             d="m 0,0 c 0,2.266 1.847,4.113 4.113,4.113 1.383,0 2.617,-0.691 3.365,-1.745 L 6.107,1.246 C 5.7,1.903 4.974,2.368 4.113,2.368 2.81,2.368 1.825,1.292 1.825,0 c 0,-1.292 0.985,-2.368 2.288,-2.368 0.861,0 1.587,0.465 1.994,1.122 L 7.478,-2.368 C 6.73,-3.422 5.496,-4.113 4.113,-4.113 1.847,-4.113 0,-2.266 0,0"
             style="fill:#00a7ea;fill-opacity:1;fill-rule:nonzero;stroke:none"
             id="path72672"
             inkscape:connector-curvature="0" />
        </g>
        <g
           id="g72674"
           transform="translate(104.0741,544.2043)"
           style="fill:#00a7ea;fill-opacity:1">
          <path
             d="M 0,0 1.371,1.121 C 1.721,0.566 2.3,0.124 2.855,0.124 c 0.533,0 0.77,0.204 0.77,0.578 0,0.363 -0.26,0.589 -0.94,0.895 L 2.232,1.801 C 1.019,2.345 0.351,3.24 0.351,4.328 c 0,1.405 1.167,2.322 2.447,2.322 0.895,0 1.575,-0.215 2.255,-1.008 L 3.83,4.351 c -0.409,0.498 -0.658,0.6 -1.032,0.6 -0.306,0 -0.623,-0.193 -0.623,-0.555 0,-0.42 0.351,-0.646 1.088,-0.975 L 3.693,3.229 C 4.804,2.73 5.449,1.926 5.449,0.815 c 0,-1.45 -1.065,-2.39 -2.56,-2.39 C 1.597,-1.575 0.555,-1.043 0,0"
             style="fill:#00a7ea;fill-opacity:1;fill-rule:nonzero;stroke:none"
             id="path72676"
             inkscape:connector-curvature="0" />
        </g>
      </g>
    </g>
  </g>
</svg>
